X:786
T:The Wee Cooper of Fife
S:Colin Hume's website,  colinhume.com  - chords can also be printed below the stave.
H:For the dance "Mr Downing's Challenge" by Maureen Christmas (Maureen Reed)
Q:3/8=116
M:6/8
L:1/8
K:A
P:A
|: E | "A"C2E "/"ECE | "D"FGA "E7"E3 | "A"EFG "F#m"ABc | "Bm"d2c "E7"B2E |
"A"C2E "/"ECE | "D"FGA "E7"E3 | "A"cee "C#m/G#"ecB | "F#m"A2A "F#m/E"ABc | "A"E2E ECE | "D"F2 "E"G "A"A2 :|
P:B
|: z | "A"ecA "/"ecA | "D"def "E7"e3 | "A"ecA "F#m"ecA | "Bm"d2c "E7"Bcd |
"A"ecA "/"ecA | "D"def "E7"e2d | "A"cee "C#m/G#"ecB | "F#m"A2A "F#m/E"ABc | "A"E2E ECE | "D"F2 "E"G "A"A2 :|
